img/meditations/rd.svg

<svg width="260" height="198" viewBox="0 0 260 198" fill="none" xmlns="http://www.w3.org/2000/svg">
<path d="M104.693 64.9019C102.921 63.6681 100.717 65.7276 101.291 67.6678C103.207 74.1351 111.565 76.2322 117.446 75.8979C123.23 75.2402 129.087 72.4508 132.656 67.8766C134.441 65.5895 135.615 62.428 135.173 59.7454C135.113 58.3562 134.215 56.5117 132.634 55.9247C131.149 55.6609 130.143 57.014 129.784 58.1756C129.424 59.3372 129.711 60.3073 129.256 61.1456C128.897 62.3072 128.022 62.9178 126.92 63.9475C125.819 64.9773 125.268 65.4922 124.393 66.1028C123.842 66.6176 123.195 66.8092 122.872 66.9049C122.549 67.0007 122.549 67.0007 122.225 67.0964C122.225 67.0964 121.579 67.2879 121.255 67.3837C118.441 68.5688 115.435 69.1072 112.788 68.484C109.914 68.28 107.627 66.4952 104.693 64.9019Z" fill="url(#paint0_linear)"/>
<path d="M112.156 55.6578C111.928 56.0769 111.928 56.0769 111.7 56.4961C110.981 58.8193 111.747 61.4062 113.843 62.5442C115.424 63.1313 117.136 62.9759 118.849 62.8205C120.142 62.4375 121.34 61.7311 122.119 60.7971C123.676 58.9292 123.976 56.3783 122.659 54.3063C121.952 53.1086 120.695 52.4258 119.437 51.7429C119.018 51.5153 118.276 51.3835 117.533 51.2516C116.468 51.2155 115.497 51.5028 114.623 52.1134C114.072 52.6283 113.521 53.1431 113.808 54.1132C113.485 54.209 113.257 54.6281 112.934 54.7238C112.706 55.143 112.383 55.2387 112.156 55.6578C112.479 55.5621 112.479 55.5621 112.156 55.6578ZM115.245 58.9637C115.568 58.8679 115.568 58.8679 115.245 58.9637V58.9637ZM118.131 55.6468C118.131 55.6468 118.455 55.5511 118.551 55.8745C118.551 55.8745 118.646 56.1978 118.97 56.1021C118.97 56.1021 118.97 56.1021 119.065 56.4254C119.161 56.7488 119.161 56.7488 119.257 57.0722L119.353 57.3955C119.353 57.3955 119.448 57.7189 119.125 57.8146L118.898 58.2338C118.898 58.2338 118.574 58.3295 118.67 58.6529L118.347 58.7486C118.347 58.7486 118.347 58.7486 118.023 58.8444C117.7 58.9401 117.7 58.9401 117.376 59.0359C117.376 59.0359 117.376 59.0359 117.053 59.1316C116.73 59.2274 116.406 59.3232 116.406 59.3232C116.083 59.4189 116.083 59.4189 115.664 59.1913C115.664 59.1913 115.664 59.1913 115.34 59.287C115.34 59.287 115.341 59.287 115.017 59.3828C115.017 59.3828 115.017 59.3828 114.598 59.1552C114.598 59.1552 114.598 59.1552 114.502 58.8318L114.311 58.1851C114.215 57.8617 114.538 57.766 114.443 57.4426L114.898 56.6044C115.545 56.4129 115.868 56.3171 116.515 56.1256C117.712 55.4192 117.808 55.7426 118.131 55.6468Z" fill="url(#paint1_linear)"/>
<path d="M144.435 98.1535C146.88 92.154 146.162 84.9803 140.331 80.7279C133.984 75.9246 126.355 77.4802 120.139 81.4312C114.797 84.7715 109.288 89.9202 111.945 96.5194C113.13 99.3339 117.334 98.0891 116.472 95.1788C115.551 90.8794 120.018 88.1496 123.384 86.4496C127.624 84.1389 132.702 82.2835 136.857 85.6255C140.078 88.1889 140.029 92.7756 139.37 96.488C138.879 98.3921 137.741 100.488 136.411 101.937C134.758 103.481 133.141 103.96 130.782 104.307C128.842 104.881 128.733 108.079 130.961 108.474C133.188 108.87 135.129 108.296 136.973 107.398C141.883 107.351 146.493 109.854 148.576 114.513C150.947 120.142 148.658 127.854 143.927 132.069C139.747 135.769 133.962 136.427 128.897 134.761C123.831 133.096 117.904 128.52 121.09 122.652C122.911 119.299 117.786 116.245 115.642 119.693C111.809 125.752 114.334 133.094 119.519 137.538C124.608 141.659 132.129 143.3 138.692 141.709C144.608 140.309 149.567 135.675 152.202 130.322C154.97 124.227 156.229 115.413 151.08 109.903C148.602 107.471 145.38 104.908 141.991 104.153C141.668 104.249 141.249 104.021 141.249 104.021C142.483 102.249 143.621 100.153 144.435 98.1535Z" fill="url(#paint2_linear)"/>
<path d="M240.355 66.9364C239.134 65.1877 237.23 64.6964 235.649 64.1093C233.23 63.067 230.716 61.7013 228.201 60.3357C222.752 57.3767 217.112 53.771 212.347 49.5547C203.426 41.9965 195.379 33.8276 184.674 28.5565C176.387 24.3276 167.478 22.7453 158.364 24.0372C154.939 24.348 137.322 27.8061 143.272 34.8369C143.691 35.0645 143.787 35.3879 144.53 35.5198C143.979 36.0346 144.266 37.0047 144.781 37.5557C146.84 39.7596 150.002 40.9338 152.612 42.6228C155.546 44.2161 158.671 46.4561 161.701 48.3727C167.628 52.9485 173.005 58.0391 177.602 64.0637C186.283 75.562 190.855 88.6284 189.608 103.418C189.308 105.969 186.564 114.52 191.606 113.73C197.295 112.749 196.362 102.473 196.279 98.6292C195.981 91.6831 195.455 85.1562 193.444 78.3655C191.433 71.5749 187.806 65.263 183.304 59.5618C178.287 53.3095 172.491 47.9913 165.821 43.2836C162.696 41.0436 158.924 38.9951 155.571 37.1743C153.152 36.132 150.218 34.5387 147.344 34.3346C149.321 32.6942 150.746 31.5688 153.428 31.1261C156.662 30.1686 160.087 29.8578 163.608 29.8703C173.333 29.4528 182.457 34.1368 190.061 39.6231C198.599 45.8878 205.58 54.0206 214.668 59.7705C219.374 62.5976 224.404 65.329 229.565 67.3178C230.727 67.6773 232.403 68.5877 233.888 68.8514C232.786 69.8812 231.684 70.9109 231.133 71.4258C227.695 75.2575 225.611 80.0954 223.85 84.8376C220.231 93.9985 218.098 103.423 216.061 113.171C214.191 121.111 211.483 128.595 205.003 134.031C199.721 138.761 189.074 144.376 181.817 141.249C183.374 139.381 184.608 137.609 185.746 135.513C187.986 132.388 189.232 127.095 192.083 124.844C195.485 122.078 191.953 116.089 188.228 118.951C185.377 121.202 183.88 124.459 182.059 127.812C179.783 132.003 176.764 136.063 173.973 139.703C167.612 147.917 159.192 153.928 149.264 157.219C139.659 160.415 129.839 160.509 119.827 159.957C108.749 159.368 99.2414 153.391 89.3741 148.575C88.1167 147.892 86.8829 149.664 87.8169 150.443C94.7739 156.12 101.312 161.571 109.766 163.991C108.892 164.602 107.694 165.308 105.982 165.463C102.748 166.421 99.323 166.732 95.8021 166.719C86.0776 167.137 76.9528 162.453 69.349 156.967C60.8113 150.702 53.8307 142.569 44.7419 136.819C40.0359 133.992 35.0065 131.261 29.8452 129.272C28.6836 128.912 27.0072 128.002 25.5222 127.738C26.6241 126.708 27.7261 125.679 28.2771 125.164C31.7148 121.332 33.7994 116.494 35.5606 111.752C39.1788 102.591 41.3121 93.1664 43.3496 83.4184C45.2192 75.4787 47.927 67.9943 54.4068 62.5583C59.4613 58.2478 69.1387 52.9202 76.4317 54.9812C73.7726 57.8789 71.5326 61.0043 69.3883 64.453C58.667 81.6964 57.945 103.013 64.3369 122.224C67.1498 130.535 72.3692 143.41 82.4406 145.352C83.183 145.484 83.9616 144.55 83.4468 143.999C80.4894 139.951 76.981 136.417 74.5747 131.854C71.6534 126.74 69.9298 120.919 68.6254 115.326C66.208 104.787 65.2159 93.1225 68.1278 82.7638C71.3991 71.2436 78.251 61.1251 87.0666 52.8872C91.702 48.3491 97.0799 43.9429 103.26 41.0577C109.668 37.7535 116.841 37.0361 124.015 36.3187C124.949 37.0973 126.566 36.6186 127.344 35.6846L127.572 35.2655C129.129 33.3975 128.303 29.4213 125.297 29.9598C119.381 31.36 112.854 31.8858 107.034 33.6094C101.213 35.3329 96.1946 38.5776 91.5953 42.0498C87.8703 44.9114 84.5645 48.0006 81.2586 51.0899C73.3911 47.0886 63.9775 50.9313 56.7912 55.1696C48.9583 59.5993 44.023 66.6882 41.2792 75.2386C37.8524 85.0462 36.8447 95.8962 33.4179 105.704C31.6206 111.512 29.2723 117.835 25.4751 122.828C24.6965 123.762 19.7738 127.33 20.3484 129.27L20.025 129.366C19.1507 129.977 19.3422 130.623 19.4379 130.947C20.6592 132.695 22.5632 133.187 24.144 133.774C26.5629 134.816 29.0776 136.182 31.5923 137.547C37.0409 140.506 42.6809 144.112 47.4466 148.328C56.3674 155.887 64.4138 164.055 75.1193 169.327C83.4059 173.555 92.3157 175.138 101.43 173.846C104.436 173.307 116.46 171.154 117.574 166.603C127.777 167.802 138.017 167.936 147.813 165.387C157.934 162.742 167.839 156.995 175.037 149.236C175.816 148.302 176.594 147.368 177.373 146.434C185.432 151.082 195.492 147.047 202.679 142.809C210.512 138.379 215.447 131.291 218.191 122.74C221.617 112.933 222.625 102.083 226.052 92.2749C227.849 86.4669 230.198 80.1441 233.995 75.1508C234.773 74.2168 239.696 70.6488 239.122 68.7086L239.445 68.6128C240.738 68.2298 240.87 67.4874 240.355 66.9364Z" fill="url(#paint3_linear)"/>
<defs>
<linearGradient id="paint0_linear" x1="110.326" y1="32.6346" x2="149.497" y2="164.918" gradientUnits="userSpaceOnUse">
<stop stop-color="white"/>
<stop offset="1" stop-color="white" stop-opacity="0"/>
</linearGradient>
<linearGradient id="paint1_linear" x1="110.326" y1="32.6346" x2="149.497" y2="164.918" gradientUnits="userSpaceOnUse">
<stop stop-color="white"/>
<stop offset="1" stop-color="white" stop-opacity="0"/>
</linearGradient>
<linearGradient id="paint2_linear" x1="110.326" y1="32.6346" x2="149.497" y2="164.918" gradientUnits="userSpaceOnUse">
<stop stop-color="white"/>
<stop offset="1" stop-color="white" stop-opacity="0"/>
</linearGradient>
<linearGradient id="paint3_linear" x1="110.326" y1="32.6346" x2="149.497" y2="164.918" gradientUnits="userSpaceOnUse">
<stop stop-color="white"/>
<stop offset="1" stop-color="white" stop-opacity="0"/>
</linearGradient>
</defs>
</svg>

<svg width="260" height="198" fill="none" xmlns="http://www.w3.org/2000/svg"><path d="M104.693 64.902c-1.772-1.234-3.976.826-3.402 2.766 1.916 6.467 10.274 8.564 16.155 8.23 5.784-.658 11.641-3.447 15.21-8.021 1.785-2.287 2.959-5.449 2.517-8.132-.06-1.389-.958-3.233-2.539-3.82-1.485-.264-2.491 1.089-2.85 2.25-.36 1.162-.073 2.132-.528 2.97-.359 1.162-1.234 1.773-2.336 2.802-1.101 1.03-1.652 1.545-2.527 2.156-.551.515-1.198.706-1.521.802l-.647.191-.97.288c-2.814 1.185-5.82 1.723-8.467 1.1-2.874-.204-5.161-1.989-8.095-3.582z" fill="url(#paint0_linear)"/><path d="M112.156 55.658l-.456.838c-.719 2.323.047 4.91 2.143 6.048 1.581.587 3.293.432 5.006.277 1.293-.383 2.491-1.09 3.27-2.024 1.557-1.868 1.857-4.419.54-6.49-.707-1.198-1.964-1.881-3.222-2.564-.419-.228-1.161-.36-1.904-.491a4.68 4.68 0 00-2.91.861c-.551.515-1.102 1.03-.815 2-.323.096-.551.515-.874.61-.228.42-.551.516-.778.935.323-.096.323-.096 0 0zm3.089 3.306c.323-.096.323-.096 0 0zm2.886-3.317s.324-.096.42.227c0 0 .095.324.419.228l.095.323.192.647.096.323s.095.324-.228.42l-.227.419s-.324.096-.228.419l-.323.096-.324.095-.647.192-.323.096-.647.191c-.323.096-.323.096-.742-.132l-.324.096-.323.096-.419-.228-.096-.323-.191-.647c-.096-.323.227-.419.132-.742l.455-.839 1.617-.478c1.197-.707 1.293-.383 1.616-.48z" fill="url(#paint1_linear)"/><path d="M144.435 98.153c2.445-5.999 1.727-13.173-4.104-17.425-6.347-4.803-13.976-3.248-20.192.703-5.342 3.34-10.851 8.49-8.194 15.088 1.185 2.815 5.389 1.57 4.527-1.34-.921-4.3 3.546-7.03 6.912-8.73 4.24-2.31 9.318-4.165 13.473-.823 3.221 2.563 3.172 7.15 2.513 10.862-.491 1.904-1.629 4-2.959 5.449-1.653 1.544-3.27 2.023-5.629 2.37-1.94.574-2.049 3.772.179 4.167 2.227.396 4.168-.178 6.012-1.076 4.91-.047 9.52 2.456 11.603 7.115 2.371 5.629.082 13.341-4.649 17.556-4.18 3.7-9.965 4.358-15.03 2.692-5.066-1.665-10.993-6.241-7.807-12.109 1.821-3.353-3.304-6.407-5.448-2.959-3.833 6.059-1.308 13.401 3.877 17.845 5.089 4.121 12.61 5.762 19.173 4.171 5.916-1.4 10.875-6.034 13.51-11.387 2.768-6.095 4.027-14.909-1.122-20.419-2.478-2.432-5.7-4.995-9.089-5.75-.323.096-.742-.132-.742-.132a31.198 31.198 0 003.186-5.868z" fill="url(#paint2_linear)"/><path d="M240.355 66.936c-1.221-1.748-3.125-2.24-4.706-2.827-2.419-1.042-4.933-2.408-7.448-3.773-5.449-2.96-11.089-6.565-15.854-10.781-8.921-7.559-16.968-15.727-27.673-20.998-8.287-4.23-17.196-5.812-26.31-4.52-3.425.311-21.042 3.77-15.092 10.8.419.227.515.55 1.258.683-.551.515-.264 1.485.251 2.036 2.059 2.204 5.221 3.378 7.831 5.067 2.934 1.593 6.059 3.833 9.089 5.75 5.927 4.576 11.304 9.666 15.901 15.69 8.681 11.499 13.253 24.565 12.006 39.355-.3 2.551-3.044 11.102 1.998 10.312 5.689-.981 4.756-11.257 4.673-15.1-.298-6.947-.824-13.474-2.835-20.264-2.011-6.791-5.638-13.103-10.14-18.804-5.017-6.252-10.813-11.57-17.483-16.278-3.125-2.24-6.897-4.289-10.25-6.11-2.419-1.042-5.353-2.635-8.227-2.84 1.977-1.64 3.402-2.765 6.084-3.208 3.234-.957 6.659-1.268 10.18-1.256 9.725-.417 18.849 4.267 26.453 9.753 8.538 6.265 15.519 14.398 24.607 20.148 4.706 2.827 9.736 5.558 14.897 7.547 1.162.36 2.838 1.27 4.323 1.533l-2.755 2.575c-3.438 3.831-5.522 8.67-7.283 13.412-3.619 9.16-5.752 18.585-7.789 28.333-1.87 7.94-4.578 15.424-11.058 20.86-5.282 4.73-15.929 10.345-23.186 7.218 1.557-1.868 2.791-3.64 3.929-5.736 2.24-3.125 3.486-8.418 6.337-10.669 3.402-2.766-.13-8.755-3.855-5.893-2.851 2.251-4.348 5.508-6.169 8.861-2.276 4.191-5.295 8.251-8.086 11.891-6.361 8.214-14.781 14.225-24.709 17.516-9.605 3.196-19.425 3.29-29.437 2.738-11.078-.589-20.586-6.566-30.453-11.382-1.257-.683-2.491 1.089-1.557 1.868 6.957 5.677 13.495 11.128 21.949 13.548-.874.611-2.072 1.317-3.784 1.472-3.234.958-6.659 1.269-10.18 1.256-9.724.418-18.85-4.266-26.453-9.752-8.538-6.265-15.518-14.398-24.607-20.148-4.706-2.827-9.735-5.558-14.897-7.547-1.161-.36-2.838-1.27-4.323-1.534l2.755-2.574c3.438-3.832 5.522-8.67 7.284-13.412 3.618-9.161 5.751-18.586 7.789-28.334 1.87-7.94 4.577-15.424 11.057-20.86 5.054-4.31 14.732-9.638 22.025-7.577-2.66 2.898-4.9 6.023-7.044 9.472-10.721 17.243-11.443 38.56-5.051 57.771 2.813 8.311 8.032 21.186 18.104 23.128.742.132 1.52-.802 1.006-1.353-2.958-4.048-6.466-7.582-8.872-12.145-2.922-5.114-4.645-10.935-5.95-16.528-2.417-10.539-3.41-22.203-.497-32.562 3.271-11.52 10.123-21.639 18.939-29.877 4.635-4.538 10.013-8.944 16.193-11.83 6.408-3.303 13.581-4.02 20.755-4.738.934.778 2.551.3 3.329-.634l.228-.42c1.557-1.867.731-5.844-2.275-5.305-5.916 1.4-12.443 1.926-18.263 3.65-5.821 1.723-10.84 4.968-15.439 8.44-3.725 2.861-7.03 5.95-10.336 9.04-7.868-4.001-17.282-.159-24.468 4.08-7.833 4.43-12.768 11.518-15.512 20.069-3.427 9.807-4.434 20.657-7.861 30.465-1.797 5.808-4.146 12.131-7.943 17.124-.779.934-5.701 4.502-5.127 6.442l-.323.096c-.874.611-.683 1.257-.587 1.581 1.221 1.748 3.125 2.24 4.706 2.827 2.419 1.042 4.934 2.408 7.448 3.773 5.449 2.959 11.089 6.565 15.855 10.781 8.92 7.559 16.967 15.727 27.672 20.999 8.287 4.228 17.197 5.811 26.311 4.519 3.006-.539 15.03-2.692 16.144-7.243 10.203 1.199 20.443 1.333 30.239-1.216 10.121-2.645 20.026-8.392 27.224-16.151l2.336-2.802c8.059 4.648 18.119.613 25.306-3.625 7.833-4.43 12.768-11.518 15.512-20.069 3.426-9.807 4.434-20.657 7.861-30.465 1.797-5.808 4.146-12.13 7.943-17.124.778-.934 5.701-4.502 5.127-6.442l.323-.096c1.293-.383 1.425-1.126.91-1.677z" fill="url(#paint3_linear)"/><defs><linearGradient id="paint0_linear" x1="110.326" y1="32.635" x2="149.497" y2="164.918" gradientUnits="userSpaceOnUse"><stop stop-color="#fff"/><stop offset="1" stop-color="#fff" stop-opacity="0"/></linearGradient><linearGradient id="paint1_linear" x1="110.326" y1="32.635" x2="149.497" y2="164.918" gradientUnits="userSpaceOnUse"><stop stop-color="#fff"/><stop offset="1" stop-color="#fff" stop-opacity="0"/></linearGradient><linearGradient id="paint2_linear" x1="110.326" y1="32.635" x2="149.497" y2="164.918" gradientUnits="userSpaceOnUse"><stop stop-color="#fff"/><stop offset="1" stop-color="#fff" stop-opacity="0"/></linearGradient><linearGradient id="paint3_linear" x1="110.326" y1="32.635" x2="149.497" y2="164.918" gradientUnits="userSpaceOnUse"><stop stop-color="#fff"/><stop offset="1" stop-color="#fff" stop-opacity="0"/></linearGradient></defs></svg>
